大富翁/house3.svg

<svg height="30.0px" stroke-miterlimit="10" style="fill-rule:nonzero;clip-rule:evenodd;stroke-linecap:round;stroke-linejoin:round;" version="1.1" viewBox="0 0 30 30" width="30.0px" xml:space="preserve" xmlns="http://www.w3.org/2000/svg" xmlns:xlink="http://www.w3.org/1999/xlink">
<defs/>
<path d="M27.6042 28.75L2.39583 28.75L2.39583 3.54167C2.39583 2.27667 3.4225 1.25 4.6875 1.25L25.3125 1.25C26.5775 1.25 27.6042 2.27667 27.6042 3.54167L27.6042 28.75Z" fill="none" opacity="1" stroke="#000000" stroke-linecap="butt" stroke-linejoin="miter" stroke-width="2.5"/>
<path d="M12.7083 23.0208L17.2917 23.0208L17.2917 28.75L12.7083 28.75L12.7083 23.0208Z" fill="#000000" fill-rule="nonzero" opacity="1" stroke="#000000" stroke-linecap="butt" stroke-linejoin="miter" stroke-width="2.5"/>
<path d="M10.4167 24.1667L5.83333 24.1667M17.2917 19.5833L12.7083 19.5833M10.4167 19.5833L5.83333 19.5833M24.1667 15L19.5833 15M24.1667 19.5833L19.5833 19.5833M24.1667 24.1667L19.5833 24.1667M17.2917 15L12.7083 15M10.4167 15L5.83333 15M24.1667 10.4167L19.5833 10.4167M17.2917 10.4167L12.7083 10.4167M10.4167 10.4167L5.83333 10.4167M24.1667 5.83333L19.5833 5.83333M17.2917 5.83333L12.7083 5.83333M10.4167 5.83333L5.83333 5.83333" fill="none" opacity="1" stroke="#000000" stroke-linecap="butt" stroke-linejoin="miter" stroke-width="2.5"/>
</svg>

<svg height="30" stroke-miterlimit="10" width="30" xmlns="http://www.w3.org/2000/svg" clip-rule="evenodd" stroke-linecap="round" stroke-linejoin="round" style="fill:theColor;" viewBox="0 0 30 30"><path d="M27.604 28.75H2.396V3.542A2.293 2.293 0 014.688 1.25h20.625a2.293 2.293 0 012.291 2.292V28.75z" fill="none" stroke="#000" stroke-linecap="butt" stroke-linejoin="miter" stroke-width="2.5"/><path d="M12.708 23.02h4.584v5.73h-4.584v-5.73z" stroke="#000" stroke-linecap="butt" stroke-linejoin="miter" stroke-width="2.5"/><path d="M10.417 24.167H5.833m11.459-4.584h-4.584m-2.291 0H5.833M24.167 15h-4.584m4.584 4.583h-4.584m4.584 4.584h-4.584M17.292 15h-4.584m-2.291 0H5.833m18.334-4.583h-4.584m-2.291 0h-4.584m-2.291 0H5.833m18.334-4.584h-4.584m-2.291 0h-4.584m-2.291 0H5.833" fill="none" stroke="theColor" stroke-linecap="butt" stroke-linejoin="miter" stroke-width="2.5"/></svg>
